X: 240
T: Bekliyorum Salınarak
C: İsmail Hakkı Bey
O: Turkey
F: http://compmusic.upf.edu/node/140
N: hicazkar--kocekce--aksak--bekliyorum_salinarak--muallim_ismail_hakki_bey
N: makam= hicazkar
N: form= kocekce
N: usul= aksak = 9/8
M: 9/8
L: 1/16
K: C _1/4B _7/8e _7/8A ^f
Q: 1/4=156
%%MIDI tuningsystem comma53
g2z2 g2g2 g4 d4 ed | c2 z2=a2 _b2a2 g2f2 e2d2  | \
w:  *  Bek li yo rum   |  *  sa lı na *  rak   | 
=a3g g3f f4 d2e2 f2 | 
w:  çık  *  rak *  sa  he  | 
d2 c'4 _b=aag gfg4gf  | g2z2 g2g2 g4 d4 ed | \
w:  man  *  a *  man_ *  a *  man   SAZ  |  *  Bek li yo rum   | 
c2 z2=a2 _b2a2 g2f2 e2d2  | 
w:  *  sa lı na *  rak   | 
=a3g g3f f4 d2e2 f2 | d2 ddd2 d2d2 z2c2 d2e2  | \
w:  çık  *  rak *  sa  he  |  man   SAZ  | 
c2cc c2c2 c2z2 B2c2 d2 | 
w:  SAZ  | 
B2 BBB2 B2B2 z2G2 A2B2  | cdc2 B2A2 G4 g4 f=a | \
w:   |   | 
g2 z2g2 _b2=a2 g2f2 e2d2  | 
w:  *  Gü zel_ en *  dâ  | 
e4 f2g2 f2e2 d6 | =a3gg3ff4d2 e2f2  | \
w:  *  mı nı  gör *  mek   |  ey  *  ka *  şı  ke  | 
d4 z2=a_b aggf g4 fa | 
w:  man   SAZ  | 
g2 z2f2 g2f2 e2de d2c2  | B4 B2c2 B2A2 G6 | \
w:  *  Gü zel_ en *  dâ  |  *  mı nı  gör *  mek   | 
d3cc3BB3AG2 A2B2  | 
w:  ey  *  ka *  şı  *  ke  | 
G2cc c2c2 c2c2 c2c2 c2 | cB cde2 d2cd c2g4z2  | 
w:  man   SAZ  |   | 
gfg=a g2f2 e2d2 e2d2 c2 | de f4 eddc cBc4Bd  | 
w:   |   | 
c2z2 c2c2 c4 g4 =f2 | g4g2 _2/4a2g2 =f2_1/4e4z2  | \
w:  *  Kâ' kül le ri  |  *  ni  dö küp  *  de   | 
_2/4a4 a3g =f4 g2a_2/4b ag | 
w:  sen  naz *  lı  ci  | 
g6 =f2fe ede4dc  | c2z2 B2c2 d4 e6 | \
w:  van    |  *  Kâ' kül le ri  | 
d4c4Bc BAG4z2  | 
w:  ni  dö küp  *  *  *  de   | 
=a3g g3f f4 d2e2 f2 | d2 ddd2 d2d2 z2c2 d2e2  | \
w:  sen  *  naz *  lı  ci  |  van   SAZ  | 
c2cc c2c2 c2z2 B2c2 d2 | 
w:   | 
B2 BBB2 B2B2 z2G2 A2B2  | cdc2 B2A2 G4 g4 f=a | \
w:   |   | 
g2 z2g2 _b2=a2 g2f2 e2d2  | 
w:  *  Rak sa  çık  *  â  | 
e4 f2g2 f2e2 d6 | =a3gg3ff4d2 e2f2  | \
w:  *  fet_ i  dev *  rân   |  gel  *  yok *  tur  za  | 
d4 z2=a_b aggf g4 fa | 
w:  man   SAZ  | 
g2 z2f2 g2f2 e2de d2c2  | B4 B2c2 B2A2 G6 | \
w:  *  Rak sa  çık  *  â  |  *  fet_ i  dev *  rân   | 
d3cc3BB3AG2 A2B2  | 
w:  gel  *  yok *  tur  *  za  | 
G2AB c2d2 c2z2 e2d2 c2 | g3fgf g=af2 z2e2 d2c2  | 
w:  man   ARANAĞME  |   | 
e2dc BcdB c2z2 =f2_2/4e2 d2 | g=f g=agf gag2 z2f2 _2/4e2d2  | 
w:   |   | 
=a2g=f f_3/4eed d2z2 _b2a2 b2 | =a2 gag2 f2e2 z2_b2 a2g2  | 
w:   |   | 
c'2_b=a aggf g2z2 b2a2 b2 | =a2 gag2 f2e2 z2_b2 a2g2  | 
w:   |   | 
|


